X:406
T: ELBERFELD DU SCHOENES STAEDTCHEN
N: E1600A
O: Europa, Mitteleuropa, Deutschland, Hessen, Camberg, Dombach
R: Staende -, Handwerker -, Gesellen - Lied; Abschied, Wanderschaft
M: 3/4
L: 1/8
K: F
FA | c3dcB | BAA2
GA | B3dcB | A4
GA | B2G2AB | cff2
ed | c2dcBc | A4
GA | B2G2AB | cff2
ed | c2dcBc | A4

